source/images/icons/close-menu.svg

<svg width="16" height="16" viewBox="0 0 16 16" fill="none" xmlns="http://www.w3.org/2000/svg">
<path fill-rule="evenodd" clip-rule="evenodd" d="M7.02548 8L2 2.97452L2.97452 2L8 7.02548L13.0255 2L14 2.97452L8.97452 8L14 13.0255L13.0255 14L8 8.97452L2.97452 14L2 13.0255L7.02548 8Z" fill="#333333"/>
</svg>

<svg viewBox="0 0 16 16" fill="none" xmlns="http://www.w3.org/2000/svg"><path fill-rule="evenodd" clip-rule="evenodd" d="m7.03 8-5.03-5.03.97-.97 5.03 5.03 5.03-5.03.97.97-5.03 5.03 5.03 5.03-.97.97-5.03-5.03-5.03 5.03-.97-.97 5.03-5.03Z" fill="#333"/></svg>
